X: 1
T: John Cass's 90th Birthday
C: Ian Thow
R: jig
N: Tune for the dance John Cass
Z: 2015 John Chambers <jc:trillian.mit.edu>
B: RSCDS 49-10
M: 6/8
L: 1/8
K: A
|: E |\
"A"A,>CE ABc | "Bm"B2F F>BA |\
[1,3 "E7"G>FE E>FG | "A"A>cf "E7"e2 :|\
[2,4 "E7"G>FE dcB | "A"A3- A2 :|
|: e |\
"A"a2e ABc | "Bm"B2F F>BA |\
"E7"G2e e>dB | "A"A2e "E7"e>fg |\
"F#m"a2e cBA | "D"F2D D2F |\
"E7"E2e dcB | "A"A3- A2 :|
